X:193
%%pagewidth 9in
%%vocalfont Baskerville10Pro 14
%%pos vol above
T:The court lady
M:6/8
L:1/8
K:F
%%score 1 2
V:1 clef-treble
V:2 clef-bass octave=-1
[V:1]D|D2E [A,DF]2G|[A,DA]2A [DFA]3|[DGB]3 [DA]2A|[DGd]2d [EA^c]2D|
w:Sweet, youth-ful, charm-ing la-dies fair, Fram'd of the pu-rest mould, With
[V:2][D,D]|[D,D]2z D3|F3D3|G3F3|B3A2[D,D]|
[V:1]D2E [A,DF]2G|[A,DA]2A [DFA]3|[DGB]3 [DA]2A|[DGd]2d [EA^c]2A|
w:ro-sy cheeks and silk-en hair, Which shine like threads of gold; Soft
[V:2][D,D]2z D3|F3D3|G3F3|B3A3|
[V:1][EA=ce]2c [FAf]2d|[EAe]c2 (A2[E=B])|(cA2) [=B,D^G]2[A,EA] & [CE]2x4|A^G2 [CEA]2A &[=B,E]3x3|
w:tears of pi-ty here be-stow,* On* the un-hap-py fate of 
[V:2]A,3D3|C3-C2^G,|A,3=B,2C|E,3A,3|
[V:1][DF]2G (A>B)A & x3D2x|[DB]A2 [DG]3|[DA]2d [G^c]2[FAd]|e^c2 [FAd]2 &[EA]3x2||
w:Ro-sa-mond,* who long a-go, Prov-ed most un-for-tu-nate.
[V:2]_B3F3|G3E3|F3E2D|A,3D2||

